static/dist/images/icons/sound.svg

<svg xmlns="http://www.w3.org/2000/svg" viewBox="0 0 20 20"><path d="M5.312 4.566C4.19 5.685-.715 12.681 3.523 16.918c4.236 4.238 11.23-.668 12.354-1.789 1.121-1.119-.335-4.395-3.252-7.312-2.919-2.919-6.191-4.376-7.313-3.251zm9.264 9.59c-.332.328-2.895-.457-5.364-2.928-2.467-2.469-3.256-5.033-2.924-5.363.328-.332 2.894.457 5.36 2.926 2.471 2.467 3.258 5.033 2.928 5.365zm.858-8.174l1.904-1.906a.999.999 0 1 0-1.414-1.414L14.02 4.568a.999.999 0 1 0 1.414 1.414zM11.124 3.8a1 1 0 0 0 1.36-.388l1.087-1.926a1 1 0 0 0-1.748-.972L10.736 2.44a1 1 0 0 0 .388 1.36zm8.748 3.016a.999.999 0 0 0-1.36-.388l-1.94 1.061a1 1 0 1 0 .972 1.748l1.94-1.061a1 1 0 0 0 .388-1.36z"/></svg>

<?xml version="1.0" encoding="utf-8"?>
<!-- Generator: Adobe Illustrator 18.1.1, SVG Export Plug-In . SVG Version: 6.00 Build 0)  -->
<!DOCTYPE svg PUBLIC "-//W3C//DTD SVG 1.1//EN" "http://www.w3.org/Graphics/SVG/1.1/DTD/svg11.dtd">
<svg version="1.1" id="Sound" xmlns="http://www.w3.org/2000/svg" xmlns:xlink="http://www.w3.org/1999/xlink" x="0px" y="0px"
	 viewBox="0 0 20 20" enable-background="new 0 0 20 20" xml:space="preserve">
<path d="M5.312,4.566C4.19,5.685-0.715,12.681,3.523,16.918c4.236,4.238,11.23-0.668,12.354-1.789
	c1.121-1.119-0.335-4.395-3.252-7.312C9.706,4.898,6.434,3.441,5.312,4.566z M14.576,14.156c-0.332,0.328-2.895-0.457-5.364-2.928
	C6.745,8.759,5.956,6.195,6.288,5.865c0.328-0.332,2.894,0.457,5.36,2.926C14.119,11.258,14.906,13.824,14.576,14.156z
	 M15.434,5.982l1.904-1.906c0.391-0.391,0.391-1.023,0-1.414c-0.39-0.391-1.023-0.391-1.414,0l-1.904,1.906
	c-0.391,0.391-0.391,1.024,0,1.414C14.41,6.372,15.043,6.372,15.434,5.982z M11.124,3.8c0.483,0.268,1.091,0.095,1.36-0.388
	l1.087-1.926c0.268-0.483,0.095-1.091-0.388-1.36c-0.482-0.269-1.091-0.095-1.36,0.388l-1.087,1.926
	C10.468,2.924,10.642,3.533,11.124,3.8z M19.872,6.816c-0.267-0.483-0.877-0.657-1.36-0.388l-1.94,1.061
	c-0.483,0.268-0.657,0.878-0.388,1.36c0.268,0.483,0.877,0.657,1.36,0.388l1.94-1.061C19.967,7.907,20.141,7.299,19.872,6.816z"/>
</svg>
